X: 346
T: Jewish Sirba
R: sirba
Q: 1/4=144
B: German Goldenshteyn "Shpilt klezmorimlach klingen zoln di gesalach" New York 2003 v.3 #46
Z: 2013 John Chambers <jc:trillian.mit.edu>
M: 2/4
L: 1/8
K: G
|:\
G,B,DG | Bdga | b4- | babc' |\
(~b>a) (~a>g) | (~g>f) (~f>e) | (~e>d) (~d>c) | (~c>B) (~B>A) |
A,CEA | ceag | f4 | zefg |\
(~f>e) (e>d) | (~d>c) (~c>B) | (~B>A) (~A>G) | Gz "_>"D2 |
G,B,DG | Bdga | b4- | babc' |\
(~b>a) (~a>g) | (~g>f) (~f>e) | (~e>d) (~d>c) | (~c>B) (~B>A) |
A>B (3(cB)A | eA (3(cB)A | G>A (3(BA)G | dG (3(BA)G |\
(~f>e) (~e>d) | (~d>c) (~c>B) | (~B>A) (~A>G) | Gz "_>"D2 :|
B2 A>G | BGDG | B2 A>G | BGDG |\
B2 A>G | B2 A>G | ABcd | e4 |\
e2 d>c | ecGc | e2 d>c | ecGc |
e2 d>c | cBc^c | d4 | g4 \
|: d2 (3(^cd)_B | (3(^cd)_B (3(cd)B |\
(3(^cde) (3(dc_B) |[1 (3(_BAG) d2 :|[2 (3(_BAG) Gz |]
